icon-svg/echo-plus.svg

<svg xmlns="http://www.w3.org/2000/svg" fill="#44739e" viewBox="0 0 24 24"><path d="M18.014 3.257C15.951 4.622 7.5 4.708 6.151 3.061c-.33 2.374 12.655 1.827 11.863.196m.193.637C16.334 5.1 6.989 5.5 5.916 3.335c-.268 1.549-.484 15.549.078 16.819 1.555 2.192 4.574 1.811 7.064 1.834 1.767-.123 4.332-.069 5.269-1.991.114-1.629-.12-16.103-.12-16.103M5.955 3.257c0 .03-.018.1.039.078-.023-.078.006-.035-.039-.078m8.781.663c7.947-.966-1.107-2.174-3.747-1.873-10.46.813-.434 2.597 3.747 1.873m-.39-1.4c.477-.079 1.733.119.78.39-.566.105-1.801-.174-.78-.395ZM12.9 2.437c-.083.415-1.5.385-1.561 0a2.37 2.37 0 0 1 1.561 0m0 1.015c-.284.177-1.446.318-1.561-.117.388-.149 1.448-.27 1.561.117m-3.745-.937c.367.011 1.2-.083 1.132.273-.507.312-2.293.029-1.132-.273"/></svg>

<?xml version="1.0" encoding="UTF-8"?>
<svg width="24px" height="24px" viewBox="0 0 24 24" version="1.1" fill="#44739e" xmlns="http://www.w3.org/2000/svg" xmlns:xlink="http://www.w3.org/1999/xlink">
            <path d="M 18.014,3.257 C 15.951,4.622 7.5,4.708 6.151,3.061 5.821,5.435 18.806,4.888 18.014,3.257 Z m 0.193,0.637 C 16.334,5.1 6.989,5.5 5.916,3.335 5.648,4.884 5.432,18.884 5.994,20.154 c 1.555,2.192 4.574,1.811 7.064,1.834 1.767,-0.123 4.332,-0.069 5.269,-1.991 0.114,-1.629 -0.12,-16.103 -0.12,-16.103 z M 5.955,3.257 c 0,0.03 -0.018,0.1 0.039,0.078 C 5.971,3.257 6,3.3 5.955,3.257 Z M 14.736,3.92 C 22.683,2.954 13.629,1.746 10.989,2.047 0.529,2.86 10.555,4.644 14.736,3.92 Z m -0.39,-1.4 c 0.477,-0.079 1.733,0.119 0.78,0.39 C 14.56,3.015 13.325,2.736 14.346,2.515 Z M 12.9,2.437 c -0.083,0.415 -1.5,0.385 -1.561,0 a 2.371,2.371 0 0 1 1.561,0 z m 0,1.015 C 12.616,3.629 11.454,3.77 11.339,3.335 11.727,3.186 12.787,3.065 12.9,3.452 Z M 9.155,2.515 c 0.367,0.011 1.2,-0.083 1.132,0.273 C 9.78,3.1 7.994,2.817 9.155,2.515 Z"/>

</svg>
